!!!!SEGMENT: pl-wtm--r-248-m_moniuszko-stanislaw--chlopek.krn
!!!cenid: 18xx:1654
!!!COM: Moniuszko, Stanisław
!!!COM-rismID: pe30008351
!!!CDT: 1819/05/05-1872/06/04
!!!CNT: Polish
!!!OTL: Chłopek
!!!PDT:
!!!AGN: Secular
!!!SMS-siglum: PL-Wtm
!!!SMS-shelfmark: R 248/M
!!!SMS-shelfwork: W
!!!SMS-variant:
!!!SMS-altvar:
!!!NIFC-rismSourceID: 1001063784
!!!NIFC-rismChildID: 1001063784
!!!NIFC-islandoraID:
!!!URL-pdf-islandora:
!!!URL-scan:
!!!IIIF:
!!!ONB-nifc:
!!!AIN: 2 empty
!!!key:
**kern	**kern	**dynam	**kern	**text
*part2	*part2	*part2	*part1	*part1
*staff3	*staff2	*	*staff1	*staff1
*Iempty	*Iempty	*	*Iempty	*
*I"	*I"	*	*I"	*
*clefF4	*clefG2	*	*clefG2	*
*k[]	*k[]	*	*k[]	*
*C:	*C:	*	*C:	*
*M2/4	*M2/4	*	*M2/4	*
*>[A,B,B,C]	*>[A,B,B,C]	*	*>[A,B,B,C]	*
=1	=1	=1	=1	=1
*all\right	*all\right	*	*all\right	*
*>A	*>A	*	*>A	*
!LO:TX:a:t=P:problem=mixed beam	!LO:TX:a:i:t=Allegretto.	!	!LO:TX:a:i:t=30. Chłopek. K. Brodzińskiego.	!
8CC/L	8r	mf	2r	.
8BBJ 8GG\	4c 4G< 4E</	.	.	.
*rep	*	*	*	*
!LO:TX:a:t=P:problem=mixed beam	!	!	!	!
8CC/L	.	.	.	.
8BBJ 8GG\	8c 8E</	.	.	.
*Xrep	*	*	*	*
=2!|:	=2!|:	=2!|:	=2!|:	=2!|:
*>B	*>B	*	*>B	*
*rep	*	*	*	*
!LO:TX:a:t=P:problem=mixed beam	!	!	!	!
8CC/L	8.BL 8.G/	.	2r	.
8CJ 8GG\	.	.	.	.
.	16dK 16B/	.	.	.
!LO:TX:a:t=P:problem=mixed beam	!	!	!	!
8CC/L	8f 8d/	.	.	.
8CJ 8GG\	8B 8F</J	.	.	.
*Xrep	*	*	*	*
=3	=3	=3	=3	=3
*rep	*	*	*	*
!LO:TX:a:t=P:problem=mixed beam	!	!	!	!
8CC/L	8c 8E</	.	2r	.
8CJ 8GG\	4c 4E</	.	.	.
!LO:TX:a:t=P:problem=mixed beam	!	!	!	!
8CC/L	.	.	.	.
8CJ 8GG\	8c 8G< 8E</	.	.	.
*Xrep	*	*	*	*
=4	=4	=4	=4	=4
8C 8CC/	8r	.	8.e/	Ry-
8r	8e 8G/	.	.	.
.	.	.	16d/	-cerz
8C/	8r	.	8e/	to
8r	8e 8G/	.	8c/	nie-
=5	=5	=5	=5	=5
8BB/	8r	.	8a/	-wiel-
8r	8g 8d 8G/	.	4g/	-ki
8BB/	8r	.	.	.
8r	8g 8d 8G/	.	8r	.
!!LO:LB:g=original
=6	=6	=6	=6	=6
8AA/	8r	.	8.cc\	kra-
8r	8g 8e 8c/	.	.	.
.	.	.	16b\	-jo-
8D\	8r	.	8cc\	-wi
8r	8f 8d 8A/	.	8dd\	u-
=7	=7	=7	=7	=7
8GG/	8r	.	8b\	-bli-
8r	8g 8d 8B/	.	4g/	-ża,
8E 8EE/	8r	.	.	.
8r	8g 8c 8G/	.	8r	.
=8	=8	=8	=8	=8
8F 8FF/	8r	.	8a/	któ-
8r	8f 8c 8A/	.	8cc\	-ry
8D 8DD/	8r	.	8.b\	nad
8r	8f 8B 8G/	.	.	.
.	.	.	16a/	stan
=9	=9	=9	=9	=9
(4E 4EE/	8r	.	8g/	wszel-
.	4e 4c 4G/	.	4e/	-ki
4AA/	.	.	.	.
.	8e 8c 8G/	.	8r	.
=10	=10	=10	=10	=10
4D 4DD/	8r	.	8f/	wie-
.	8f 8d 8c 8A/	.	8a^/	-snia-
4GG/	8r	.	8g/	-ka
.	8e 8B 8G/	.	8f/	po-
=11	=11	=11	=11	=11
8C 8CC/)	8r	.	8e/	-ni-
8r	8e 8c 8G/	.	4c/	-ża.
4C/	8r	.	.	.
.	8g 8e 8G/	.	8r	.
!!LO:LB:g=original
=12	=12	=12	=12	=12
8BB/	8r	.	8.d/	pra-
8r	8g 8d 8G/	.	.	.
.	.	.	16g/	-co-
8GG/	8r	.	8b\	-wi-
8r	8g 8d 8B/	.	8dd\	-ty
=13	=13	=13	=13	=13
8C/	8r	.	8dd\	chło-
8r	8g 8e 8A/	.	4.cc\	-pek,
8GG/	8r	.	.	.
8r	8g 8e 8c/	.	.	.
=14	=14	=14	=14	=14
8F\	8r	.	8a\	ży-
8r	8f 8c 8A/	.	8cc\	-wi,
8GG/	8r	.	8b\	i
8r	8a 8f 8d/	.	8a\	o-
=15	=15	=15	=15	=15
8BB/	8r	.	8dd\	-bro-
8r	4g 4d/	.	4g/	-ni,
8GG/	.	.	.	.
8r	8g 8f 8d 8B/	.	8r	.
=16	=16	=16	=16	=16
2C 2CC/	8r	.	8.g/	ży-
.	8gL 8e 8c/	.	.	.
.	.	.	16g/	-wi
.	8g 8e 8c/	.	8.cc\	je-
.	[8g#XJ [>8d [8B/	.	.	.
.	.	.	16b\	-go
=17	=17	=17	=17	=17
4AA/	8g#] 8d] 8B/]	.	8b\	sno-
.	4a 4c 4A/	.	4a\	-pek
4FF#X/	.	.	.	.
.	8a 8d 8c/	.	8r	.
!!LO:LB:g=original
=18	=18	=18	=18	=18
8GG/	8r	.	8g/	je-
8r	8gL 8d 8B/	.	8f/	-go
4G\	8g 8d 8B/	.	8e/	pierś
.	8fJ 8d 8B/	.	8d/	o-
=19	=19	=19	=19	=19
4G#X\	8r	.	8f/	-sło-
.	8e 8d 8B/	.	8e/	-ni.
4G#\	8r	.	8r	.
.	8e 8c 8A/	.	[8g^/	os-
=20	=20	=20	=20	=20
8B\L	8r	.	8g/]	.
[8G\J	8g 8f 8d/	.	8g/	-trzem
4c 4G] 4C\	4ee 4g 4e;/	sf	8.ee^;\	je-
.	.	.	16cc\	-go
=21	=21	=21	=21	=21
*2\right	*	*	*	*
2F\	8r	.	4b\	ko-
.	8fL 8c/	.	.	.
.	8a 8e 8c/	.	8a\	-sy
.	8aJ 8e-X 8c/	.	8r	.
=22	=22	=22	=22	=22
8F#X\L	8r	.	8.a\	o-
(8A\	8a 8d 8c/	.	.	.
.	.	.	32b\LLL	-zła-
.	.	.	32cc\JJJ	.
8F#\)	8r	.	8dd\	-ca
8D\J|	8a 8f#X 8d 8c/	.	8dd\	się
=23	=23	=23	=23	=23
(8G\L	8r	.	4ee\	zie-
!	!LO:S:s=1:note:problem=note-level slur	!	!	!
8D\)	(8bL 8g 8B/	<	.	.
8B\|	8dd/	.	8dd\	-mia,
!	!LO:S:s=2:note:problem=note-level slur	!	!	!
8A\J|	8ffJ 8cc 8a/)	[	8ff\	on
!!LO:PB:g=original
=24	=24	=24	=24	=24
!	!	!LO:DY:t=f.	!	!
(4G#X 4GG#X/	8r	f	8ee\	na
.	4ee 4b 4e\	.	4b\	niej
4Gn 4GGn/	.	.	.	.
.	8cc#X [<8a [8e\	.	8cc#X\	wnet
=25	=25	=25	=25	=25
4F 4FF/	8a] 8e/]	.	8dd\	kło-
.	.	>	.	.
.	4dd 4a 4d/	.	4a\	-sy,
4E 4EE/	.	.	.	.
.	.	.	8qcc/	.
!	!LO:S:problem=note-level slur	!	!	!
.	(8b-X (8g (8c#X/	]	8b-X\	wnet
=26	=26	=26	=26	=26
!	!	!LO:DY:t=p.	!	!
8F 8FF/)	8a) 8f) 8d/)	p	8a/	waw-
8r	8r	.	4d/	-rzyn
(4D 4GG/	[4f [4B/	.	.	.
.	.	.	8g/	roz-
=27	=27	=27	=27	=27
4CC/)	8f] 8B/]	.	4g/	-ple-
.	4e 4c/	.	.	.
8CC/L	.	.	8c/	-nia.
!	!	!LO:DY:t=pp.	!	!
8CJ 8GG/	8e 8c/	pp	8r	.
=28	=28	=28	=28	=28
8CC/L	8g 8e/|	.	2r	.
8CJ 8GG/	(4f 4d/	.	.	.
8CC/L	.	.	.	.
8CJ 8GG/	8d 8B/	.	.	.
=29	=29	=29	=29	=29
*rep	*	*	*	*
8CC/L	8a 8f/|)	.	2r	.
8CJ 8GG/	(>4g 4e^/	.	.	.
8CC/L	.	.	.	.
8CJ 8GG/	8cc 8e/)	.	.	.
*Xrep	*	*	*	*
!!LO:LB:g=original
=30	=30	=30	=30	=30
8CC/L	(8.bL 8.g\	.	2r	.
8DJ 8GG/	.	.	.	.
.	16ccK 16a\	.	.	.
*rep	*	*	*	*
8CC/L	8ffJ 8dd\)	.	.	.
8DJ 8GG/	8b 8f/	.	.	.
*Xrep	*	*	*	*
=31	=31	=31	=31	=31
!LO:TX:a:t=P:problem=mixed beam	!	!	!	!
8CC/L	8cc 8e/	.	2r	.
8CJ 8GG\	4c< 4G< 4E<^^/	.	.	.
*rep	*	*	*	*
!LO:TX:a:t=P:problem=mixed beam	!	!	!	!
8CC/L	.	.	.	.
8CJ 8GG\	8c< 8E</	.	.	.
*Xrep	*	*	*	*
=32:|!	=32:|!	=32:|!	=32:|!	=32:|!
*>C	*>C	*	*>C	*
8CC/L	8.B<L 8.G</	.	2r	.
8qAA/	.	.	.	.
8GG/J	.	.	.	.
.	16d<K 16B</	.	.	.
8GGG/L	(<8.f< 8.d<^^/	.	.	.
[8GG/J	.	.	.	.
.	16B<Jk 16F< 16D</)	.	.	.
=33	=33	=33	=33	=33
8GG] 8CC\	8c< 8E</	.	2r	.
4GG 4CC\	4c< 4E<;/	.	.	.
8r	8r	.	.	.
==	==	==	==	==
*-	*-	*-	*-	*-
!!!system-decoration: {<s1>(s2,s3)}
!!!RDF**kern: > = above
!!!RDF**kern: < = below
!!!RDF**kern: | = vertical stroke
!!!ENC: Marta Lawrence
!!!END: 2021-04-17
!!!ENC: Berenika Jozajtis
!!!END: 2021-03-29
!!!YEC: Copyright 2022 Narodowy Instytut Fryderyka Chopina (https://polishscores.org)
!!!YEM: License CC-BY-4.0 (https://creativecommons.org/licenses/by/4.0)
